dist/assets/img/plus_icon.svg

<svg width="15" height="15" viewBox="0 0 15 15" fill="none" xmlns="http://www.w3.org/2000/svg">
<path d="M10.1953 7.03125H7.96875V4.80469C7.96875 4.74023 7.91602 4.6875 7.85156 4.6875H7.14844C7.08398 4.6875 7.03125 4.74023 7.03125 4.80469V7.03125H4.80469C4.74023 7.03125 4.6875 7.08398 4.6875 7.14844V7.85156C4.6875 7.91602 4.74023 7.96875 4.80469 7.96875H7.03125V10.1953C7.03125 10.2598 7.08398 10.3125 7.14844 10.3125H7.85156C7.91602 10.3125 7.96875 10.2598 7.96875 10.1953V7.96875H10.1953C10.2598 7.96875 10.3125 7.91602 10.3125 7.85156V7.14844C10.3125 7.08398 10.2598 7.03125 10.1953 7.03125Z" fill="#C6C6C6"/>
<path d="M7.5 0.9375C3.87598 0.9375 0.9375 3.87598 0.9375 7.5C0.9375 11.124 3.87598 14.0625 7.5 14.0625C11.124 14.0625 14.0625 11.124 14.0625 7.5C14.0625 3.87598 11.124 0.9375 7.5 0.9375ZM7.5 12.9492C4.49121 12.9492 2.05078 10.5088 2.05078 7.5C2.05078 4.49121 4.49121 2.05078 7.5 2.05078C10.5088 2.05078 12.9492 4.49121 12.9492 7.5C12.9492 10.5088 10.5088 12.9492 7.5 12.9492Z" fill="#C6C6C6"/>
</svg>

<svg width="15" height="15" fill="none" xmlns="http://www.w3.org/2000/svg"><path d="M10.195 7.031H7.97V4.805a.118.118 0 00-.117-.117h-.704a.118.118 0 00-.117.117V7.03H4.805a.118.118 0 00-.117.117v.704c0 .064.052.117.117.117H7.03v2.226c0 .065.053.117.117.117h.704a.118.118 0 00.117-.117V7.97h2.226a.118.118 0 00.117-.117v-.704a.118.118 0 00-.117-.117z" fill="#C6C6C6"/><path d="M7.5.938a6.563 6.563 0 100 13.125A6.563 6.563 0 007.5.937zm0 12.011a5.45 5.45 0 010-10.898 5.45 5.45 0 010 10.898z" fill="#C6C6C6"/></svg>
